src/next/cmd/lc_diagramaxisz.svg

<svg height="24" width="24" xmlns="http://www.w3.org/2000/svg" xmlns:xlink="http://www.w3.org/1999/xlink"><linearGradient id="a"><stop offset="0" stop-color="#fbaeff"/><stop offset="1" stop-color="#ffd7d7"/></linearGradient><linearGradient id="b"><stop offset="0" stop-color="#fff"/><stop offset="1" stop-color="#fff" stop-opacity="0"/></linearGradient><linearGradient id="c"><stop offset="0" stop-color="#b900c4"/><stop offset="1" stop-color="#ae4300"/></linearGradient><linearGradient id="d" gradientTransform="matrix(1.136603 0 0 .99691887 30.893241 -15.610166)" gradientUnits="userSpaceOnUse" x1="35.803963" x2="35.803963" xlink:href="#c" y1="116.09032" y2="27.999783"/><linearGradient id="e" gradientTransform="matrix(.86538572 0 0 .91667 40.904115 -9.51118)" gradientUnits="userSpaceOnUse" x1="48" x2="47.9986" xlink:href="#a" y1="88" y2="21.335606"/><linearGradient id="f" gradientTransform="matrix(.86538572 0 0 .93713356 44.365658 -17.257585)" gradientUnits="userSpaceOnUse" x1="9.269053" x2="40" xlink:href="#b" y1="30.772436" y2="84"/><linearGradient id="g" gradientTransform="matrix(1.136603 0 0 .99691887 4.226853 -15.610166)" gradientUnits="userSpaceOnUse" x1="35.803963" x2="35.803963" xlink:href="#c" y1="116.09032" y2="27.999783"/><linearGradient id="h" gradientTransform="matrix(.86538572 0 0 .91667 14.237726 -9.51118)" gradientUnits="userSpaceOnUse" x1="48" x2="47.9986" xlink:href="#a" y1="88" y2="21.335606"/><linearGradient id="i" gradientTransform="matrix(.86538572 0 0 .91667 17.756561 10.524384)" gradientUnits="userSpaceOnUse" x1="9.269053" x2="40" xlink:href="#b" y1="30.772436" y2="84"/><linearGradient id="j" gradientTransform="matrix(1.136603 0 0 .99691887 57.384363 -15.062547)" gradientUnits="userSpaceOnUse" x1="35.803963" x2="35.803963" xlink:href="#c" y1="116.09032" y2="27.999783"/><linearGradient id="k" gradientTransform="matrix(.86538572 0 0 .91667 67.395236 -8.963563)" gradientUnits="userSpaceOnUse" x1="48" x2="47.9986" xlink:href="#a" y1="88" y2="21.335606"/><linearGradient id="l" gradientTransform="matrix(.86538572 0 0 .91667 70.914071 4.199289)" gradientUnits="userSpaceOnUse" x1="9.269053" x2="40" xlink:href="#b" y1="30.772436" y2="84"/><g transform="scale(.1875)"><path d="m31.999434 5.334845v10.666555 85.33244h-5.333278v-85.33244-10.666555z" fill="#797979"/><path d="m122.66515 101.33384h-10.66655-79.999166v-5.333274h79.999166 10.66655z" fill="#797979"/><rect fill="url(#d)" height="74.71006" rx="4.288369" ry="3.761345" width="21.45108" x="63.9991" y="21.334679"/><rect fill="url(#e)" height="64.043518" rx="1.5298" ry="1.620459" width="10.801393" x="69.332375" y="26.667955"/><path d="m70.862417 26.667956c-.847509 0-1.530767.722551-1.530767 1.620286v26.279067c4.120153-1.562607 8.282209-3.888419 10.785195-6.810571v-19.5795c0-.08586-.01157-.168181-.02327-.250651-.154604-.722104-.759779-1.258631-1.489589-1.258631z" fill="url(#f)"/><rect fill="url(#g)" height="48.043671" rx="4.288369" ry="3.761345" width="21.45108" x="37.33271" y="48.001068"/><rect fill="url(#h)" height="37.377129" rx="1.5298" ry="1.620459" width="10.801393" x="42.665989" y="53.334343"/><path d="m44.19663 53.33352c-.847509 0-1.530767.724341-1.530767 1.622076v25.845797c4.117412-1.520629 8.282717-3.787774 10.801309-6.638696v-19.207101c0-.897735-.681468-1.622076-1.528977-1.622076z" fill="url(#i)"/><rect fill="url(#j)" height="53.924564" rx="4.288369" ry="3.761345" width="21.275812" x="90.665489" y="42.667789"/><rect fill="url(#k)" height="43.258022" rx="1.5298" ry="1.620459" width="10.626125" x="95.998764" y="48.001068"/><path d="m97.528203 48.001795c-.847507 0-1.528976.722551-1.528976 1.620285v24.789479c4.060833-1.520723 8.143223-3.764795 10.625853-6.576034v-18.213445c0-.897734-.68326-1.620285-1.53077-1.620285z" fill="url(#l)"/><g fill-rule="evenodd"><path d="m31.999434 101.33384-26.666104 26.66616h-5.333278v-5.33328l26.666104-26.666154v5.333274z" fill="#797979"/><path d="m18.14494 85.334137-18.14494 18.663463v10.29268l23.478456-23.622627z" fill="#1975ff" fill-opacity=".992157"/></g></g></svg>

<?xml version="1.0" encoding="UTF-8" standalone="no"?>
<!-- Created with Inkscape (http://www.inkscape.org/) -->

<svg
   xmlns:dc="http://purl.org/dc/elements/1.1/"
   xmlns:cc="http://creativecommons.org/ns#"
   xmlns:rdf="http://www.w3.org/1999/02/22-rdf-syntax-ns#"
   xmlns:svg="http://www.w3.org/2000/svg"
   xmlns="http://www.w3.org/2000/svg"
   xmlns:xlink="http://www.w3.org/1999/xlink"
   xmlns:sodipodi="http://sodipodi.sourceforge.net/DTD/sodipodi-0.dtd"
   xmlns:inkscape="http://www.inkscape.org/namespaces/inkscape"
   width="24"
   height="24"
   id="svg3408"
   sodipodi:version="0.32"
   inkscape:version="0.92.4 (unknown)"
   version="1.0"
   sodipodi:docname="lc_diagramaxisz.svg"
   inkscape:output_extension="org.inkscape.output.svgz.inkscape"
   inkscape:export-filename="/home/rizmut/Dokumen/Rizmut/Github/libreoffice-style-karasa-jaga/build/next/cmd/lc_diagramaxisz.png"
   inkscape:export-xdpi="18"
   inkscape:export-ydpi="18">
  <defs
     id="defs3410">
    <linearGradient
       id="linearGradient3201">
      <stop
         id="stop3203"
         offset="0"
         style="stop-color:#fbaeff;stop-opacity:1;" />
      <stop
         id="stop3205"
         offset="1"
         style="stop-color:#ffd7d7;stop-opacity:1;" />
    </linearGradient>
    <linearGradient
       inkscape:collect="always"
       xlink:href="#linearGradient3201"
       id="linearGradient3189"
       x1="66.06562"
       y1="92.045761"
       x2="66.06562"
       y2="43.634895"
       gradientUnits="userSpaceOnUse"
       gradientTransform="translate(-4)" />
    <linearGradient
       id="linearGradient3195">
      <stop
         id="stop3197"
         offset="0"
         style="stop-color:#99c2fc;stop-opacity:1;" />
      <stop
         id="stop3199"
         offset="1"
         style="stop-color:#dceafe;stop-opacity:1;" />
    </linearGradient>
    <linearGradient
       inkscape:collect="always"
       xlink:href="#linearGradient3195"
       id="linearGradient3193"
       gradientUnits="userSpaceOnUse"
       x1="68"
       y1="112"
       x2="68"
       y2="80"
       gradientTransform="translate(-4)" />
    <linearGradient
       inkscape:collect="always"
       id="linearGradient3228">
      <stop
         style="stop-color:#ffffff;stop-opacity:1;"
         offset="0"
         id="stop3230" />
      <stop
         style="stop-color:#ffffff;stop-opacity:0;"
         offset="1"
         id="stop3232" />
    </linearGradient>
    <linearGradient
       inkscape:collect="always"
       xlink:href="#linearGradient3228"
       id="linearGradient3234"
       x1="84"
       y1="60"
       x2="110"
       y2="105.03332"
       gradientUnits="userSpaceOnUse"
       gradientTransform="translate(-4)" />
    <linearGradient
       inkscape:collect="always"
       id="linearGradient3220">
      <stop
         style="stop-color:#ffffff;stop-opacity:1;"
         offset="0"
         id="stop3222" />
      <stop
         style="stop-color:#ffffff;stop-opacity:0;"
         offset="1"
         id="stop3224" />
    </linearGradient>
    <linearGradient
       inkscape:collect="always"
       xlink:href="#linearGradient3220"
       id="linearGradient3226"
       x1="92.704826"
       y1="8.8034716"
       x2="120"
       y2="76"
       gradientUnits="userSpaceOnUse"
       gradientTransform="translate(-4)" />
    <linearGradient
       id="linearGradient6310">
      <stop
         style="stop-color:#b900c4;stop-opacity:1;"
         offset="0"
         id="stop6312" />
      <stop
         style="stop-color:#ae4300;stop-opacity:1;"
         offset="1"
         id="stop6314" />
    </linearGradient>
    <linearGradient
       inkscape:collect="always"
       xlink:href="#linearGradient6310"
       id="linearGradient3772"
       gradientUnits="userSpaceOnUse"
       x1="32"
       y1="88.468971"
       x2="54.051708"
       y2="6.1708703"
       gradientTransform="translate(-4)" />
    <linearGradient
       id="linearGradient3051">
      <stop
         style="stop-color:#0968ef;stop-opacity:1;"
         offset="0"
         id="stop3053" />
      <stop
         style="stop-color:#aecffc;stop-opacity:1;"
         offset="1"
         id="stop3055" />
    </linearGradient>
    <linearGradient
       inkscape:collect="always"
       xlink:href="#linearGradient3051"
       id="linearGradient3768"
       x1="23.5"
       y1="64"
       x2="140.19827"
       y2="32.730793"
       gradientUnits="userSpaceOnUse"
       gradientTransform="translate(-4)" />
    <linearGradient
       id="linearGradient3051-4">
      <stop
         style="stop-color:#0968ef;stop-opacity:1;"
         offset="0"
         id="stop3053-8" />
      <stop
         style="stop-color:#aecffc;stop-opacity:1;"
         offset="1"
         id="stop3055-7" />
    </linearGradient>
    <radialGradient
       r="9.3331003"
       fy="28.963078"
       fx="78.720047"
       cy="25.335899"
       cx="78.664696"
       gradientTransform="matrix(3.508002,1.9066247e-7,-2.952602e-7,3.5080019,-197.95592,-66.878401)"
       gradientUnits="userSpaceOnUse"
       id="radialGradient3914"
       xlink:href="#linearGradient3845"
       inkscape:collect="always" />
    <linearGradient
       inkscape:collect="always"
       id="linearGradient3845">
      <stop
         style="stop-color:#ffffff;stop-opacity:1;"
         offset="0"
         id="stop3847" />
      <stop
         style="stop-color:#ffffff;stop-opacity:0;"
         offset="1"
         id="stop3849" />
    </linearGradient>
    <linearGradient
       inkscape:collect="always"
       xlink:href="#linearGradient6310"
       id="linearGradient4435"
       gradientUnits="userSpaceOnUse"
       gradientTransform="matrix(1.136603,0,0,0.99691887,30.893241,-15.610166)"
       x1="35.803963"
       y1="116.09032"
       x2="35.803963"
       y2="27.999783" />
    <linearGradient
       y2="60"
       x2="47.998501"
       y1="60"
       x1="3.9985001"
       gradientUnits="userSpaceOnUse"
       id="linearGradient3003">
      <stop
         id="stop3005"
         style="stop-color:#245795;stop-opacity:1;"
         offset="0" />
      <stop
         id="stop3007"
         style="stop-color:#afd4ff;stop-opacity:1;"
         offset="1" />
    </linearGradient>
    <linearGradient
       inkscape:collect="always"
       xlink:href="#linearGradient3201"
       id="linearGradient4437"
       gradientUnits="userSpaceOnUse"
       gradientTransform="matrix(0.86538572,0,0,0.91667,40.904115,-9.5111802)"
       x1="48"
       y1="88"
       x2="47.9986"
       y2="21.335606" />
    <linearGradient
       id="linearGradient3009">
      <stop
         id="stop3011"
         offset="0"
         style="stop-color:#9fbde2;stop-opacity:1;" />
      <stop
         id="stop3013"
         offset="1"
         style="stop-color:#ffffff;stop-opacity:1;" />
    </linearGradient>
    <linearGradient
       inkscape:collect="always"
       xlink:href="#linearGradient3228"
       id="linearGradient4439"
       gradientUnits="userSpaceOnUse"
       x1="9.2690525"
       y1="30.772436"
       x2="40"
       y2="84"
       gradientTransform="matrix(0.86538572,0,0,0.93713356,44.365658,-17.257585)" />
    <linearGradient
       inkscape:collect="always"
       xlink:href="#linearGradient6310"
       id="linearGradient908"
       gradientUnits="userSpaceOnUse"
       gradientTransform="matrix(1.136603,0,0,0.99691887,4.2268527,-15.610166)"
       x1="35.803963"
       y1="116.09032"
       x2="35.803963"
       y2="27.999783" />
    <linearGradient
       inkscape:collect="always"
       xlink:href="#linearGradient3201"
       id="linearGradient910"
       gradientUnits="userSpaceOnUse"
       gradientTransform="matrix(0.86538572,0,0,0.91667,14.237726,-9.5111802)"
       x1="48"
       y1="88"
       x2="47.9986"
       y2="21.335606" />
    <linearGradient
       inkscape:collect="always"
       xlink:href="#linearGradient3228"
       id="linearGradient912"
       gradientUnits="userSpaceOnUse"
       gradientTransform="matrix(0.86538572,0,0,0.91667,17.756561,10.524384)"
       x1="9.2690525"
       y1="30.772436"
       x2="40"
       y2="84" />
    <linearGradient
       inkscape:collect="always"
       xlink:href="#linearGradient6310"
       id="linearGradient920"
       gradientUnits="userSpaceOnUse"
       gradientTransform="matrix(1.136603,0,0,0.99691887,57.384363,-15.062547)"
       x1="35.803963"
       y1="116.09032"
       x2="35.803963"
       y2="27.999783" />
    <linearGradient
       inkscape:collect="always"
       xlink:href="#linearGradient3201"
       id="linearGradient922"
       gradientUnits="userSpaceOnUse"
       gradientTransform="matrix(0.86538572,0,0,0.91667,67.395236,-8.9635625)"
       x1="48"
       y1="88"
       x2="47.9986"
       y2="21.335606" />
    <linearGradient
       inkscape:collect="always"
       xlink:href="#linearGradient3228"
       id="linearGradient924"
       gradientUnits="userSpaceOnUse"
       gradientTransform="matrix(0.86538572,0,0,0.91667,70.914071,4.1992886)"
       x1="9.2690525"
       y1="30.772436"
       x2="40"
       y2="84" />
  </defs>
  <sodipodi:namedview
     id="base"
     pagecolor="#ffffff"
     bordercolor="#666666"
     borderopacity="1.0"
     inkscape:pageopacity="0.0"
     inkscape:pageshadow="2"
     inkscape:zoom="5.6568542"
     inkscape:cx="0.54829071"
     inkscape:cy="27.342222"
     inkscape:document-units="px"
     inkscape:current-layer="g83"
     height="128px"
     width="128px"
     showborder="true"
     inkscape:showpageshadow="false"
     showgrid="true"
     inkscape:window-width="1366"
     inkscape:window-height="714"
     inkscape:window-x="0"
     inkscape:window-y="28"
     showguides="true"
     inkscape:guide-bbox="true"
     objecttolerance="8"
     gridtolerance="9"
     guidetolerance="10"
     inkscape:window-maximized="1">
    <inkscape:grid
       type="xygrid"
       id="grid9073"
       spacingx="0.5"
       spacingy="0.5" />
  </sodipodi:namedview>
  <metadata
     id="metadata3413">
    <rdf:RDF>
      <cc:Work
         rdf:about="">
        <dc:format>image/svg+xml</dc:format>
        <dc:type
           rdf:resource="http://purl.org/dc/dcmitype/StillImage" />
        <dc:title></dc:title>
      </cc:Work>
    </rdf:RDF>
  </metadata>
  <g
     inkscape:label="Livello 1"
     inkscape:groupmode="layer"
     id="layer1"
     transform="translate(0,-104)">
    <g
       id="g83"
       transform="matrix(0.1875,0,0,0.1875,0,104)">
      <path
         inkscape:connector-curvature="0"
         sodipodi:nodetypes="ccccccc"
         id="path3447"
         d="M 31.999434,5.334845 V 16.0014 101.33384 H 26.666156 V 16.0014 5.334845 Z"
         style="opacity:1;fill:#797979;fill-opacity:1;stroke:none;stroke-width:0.91667002;stroke-linecap:round;stroke-linejoin:round;stroke-miterlimit:4;stroke-dasharray:none;stroke-dashoffset:0;stroke-opacity:1" />
      <path
         inkscape:connector-curvature="0"
         style="opacity:1;fill:#797979;fill-opacity:1;stroke:none;stroke-width:0.91666996;stroke-linecap:round;stroke-linejoin:round;stroke-miterlimit:4;stroke-dasharray:none;stroke-dashoffset:0;stroke-opacity:1"
         d="M 122.66515,101.33384 H 111.9986 31.999434 v -5.333274 h 79.999166 10.66655 z"
         id="path3693"
         sodipodi:nodetypes="ccccccc" />
      <rect
         style="opacity:1;fill:url(#linearGradient4435);fill-opacity:1;stroke:none;stroke-width:6.06749058;stroke-linecap:square;stroke-linejoin:miter;stroke-miterlimit:4;stroke-dasharray:none;stroke-dashoffset:0;stroke-opacity:1"
         id="rect4429"
         width="21.45108"
         height="74.71006"
         x="63.9991"
         y="21.334679"
         ry="3.7613454"
         rx="4.2883692" />
      <rect
         rx="1.5298002"
         ry="1.6204588"
         y="26.667955"
         x="69.332375"
         height="64.043518"
         width="10.801393"
         id="rect4431"
         style="opacity:1;fill:url(#linearGradient4437);fill-opacity:1;stroke:none;stroke-width:5.07675505;stroke-linecap:square;stroke-linejoin:miter;stroke-miterlimit:4;stroke-dasharray:none;stroke-dashoffset:0;stroke-opacity:1" />
      <path
         inkscape:connector-curvature="0"
         id="path4433"
         d="m 70.862417,26.667956 c -0.847509,0 -1.530767,0.722551 -1.530767,1.620286 v 26.279067 c 4.120153,-1.562607 8.282209,-3.888419 10.785195,-6.810571 v -19.5795 c 0,-0.08586 -0.01157,-0.168181 -0.02327,-0.250651 -0.154604,-0.722104 -0.759779,-1.258631 -1.489589,-1.258631 z"
         style="opacity:1;fill:url(#linearGradient4439);fill-opacity:1;stroke:none;stroke-width:5.13310862;stroke-linecap:square;stroke-linejoin:miter;stroke-miterlimit:4;stroke-dasharray:none;stroke-dashoffset:0;stroke-opacity:1" />
      <rect
         rx="4.2883692"
         ry="3.7613454"
         y="48.001068"
         x="37.33271"
         height="48.043671"
         width="21.45108"
         id="rect902"
         style="opacity:1;fill:url(#linearGradient908);fill-opacity:1;stroke:none;stroke-width:6.06749058;stroke-linecap:square;stroke-linejoin:miter;stroke-miterlimit:4;stroke-dasharray:none;stroke-dashoffset:0;stroke-opacity:1" />
      <rect
         style="opacity:1;fill:url(#linearGradient910);fill-opacity:1;stroke:none;stroke-width:5.07675505;stroke-linecap:square;stroke-linejoin:miter;stroke-miterlimit:4;stroke-dasharray:none;stroke-dashoffset:0;stroke-opacity:1"
         id="rect904"
         width="10.801393"
         height="37.377129"
         x="42.665989"
         y="53.334343"
         ry="1.6204588"
         rx="1.5298002" />
      <path
         inkscape:connector-curvature="0"
         id="path906"
         d="m 44.19663,53.33352 c -0.847509,0 -1.530767,0.724341 -1.530767,1.622076 v 25.845797 c 4.117412,-1.520629 8.282717,-3.787774 10.801309,-6.638696 V 54.955596 c 0,-0.897735 -0.681468,-1.622076 -1.528977,-1.622076 z"
         style="opacity:1;fill:url(#linearGradient912);fill-opacity:1;stroke:none;stroke-width:5.07675505;stroke-linecap:square;stroke-linejoin:miter;stroke-miterlimit:4;stroke-dasharray:none;stroke-dashoffset:0;stroke-opacity:1" />
      <rect
         style="opacity:1;fill:url(#linearGradient920);fill-opacity:1;stroke:none;stroke-width:6.06749058;stroke-linecap:square;stroke-linejoin:miter;stroke-miterlimit:4;stroke-dasharray:none;stroke-dashoffset:0;stroke-opacity:1"
         id="rect914"
         width="21.275812"
         height="53.924564"
         x="90.665489"
         y="42.667789"
         ry="3.7613454"
         rx="4.2883692" />
      <rect
         rx="1.5298002"
         ry="1.6204588"
         y="48.001068"
         x="95.998764"
         height="43.258022"
         width="10.626125"
         id="rect916"
         style="opacity:1;fill:url(#linearGradient922);fill-opacity:1;stroke:none;stroke-width:5.07675505;stroke-linecap:square;stroke-linejoin:miter;stroke-miterlimit:4;stroke-dasharray:none;stroke-dashoffset:0;stroke-opacity:1" />
      <path
         inkscape:connector-curvature="0"
         id="path918"
         d="m 97.528203,48.001795 c -0.847507,0 -1.528976,0.722551 -1.528976,1.620285 v 24.789479 c 4.060833,-1.520723 8.143223,-3.764795 10.625853,-6.576034 V 49.62208 c 0,-0.897734 -0.68326,-1.620285 -1.53077,-1.620285 z"
         style="opacity:1;fill:url(#linearGradient924);fill-opacity:1;stroke:none;stroke-width:5.07675505;stroke-linecap:square;stroke-linejoin:miter;stroke-miterlimit:4;stroke-dasharray:none;stroke-dashoffset:0;stroke-opacity:1" />
      <path
         sodipodi:nodetypes="ccccccc"
         inkscape:connector-curvature="0"
         id="path988"
         d="M 31.999434,101.33384 5.33333,128 H 5.2e-5 v -5.33328 L 26.666156,96.000566 v 5.333274 z"
         style="fill:#797979;fill-opacity:1;fill-rule:evenodd;stroke:none;stroke-width:0.91667002px;stroke-linecap:butt;stroke-linejoin:miter;stroke-opacity:1" />
      <path
         sodipodi:nodetypes="ccccc"
         id="path1616"
         d="M 18.14494,85.334137 0,103.9976 v 10.29268 L 23.478456,90.667653 Z"
         style="fill:#1975ff;fill-opacity:0.99215686;fill-rule:evenodd;stroke:none;stroke-width:0.91667002px;stroke-linecap:butt;stroke-linejoin:miter;stroke-opacity:1"
         inkscape:connector-curvature="0" />
    </g>
  </g>
</svg>
